!!!COM:	Martini, Johannes
!!!CDT:	~1440///-~1497//
!!!OTL:	Laudate-pueri
!!!AGN:	Motet
!!!SCT:	Mar2065
!!!SCA:	Mar2065
!!!voices:	2
**kern	**kern
*staff2	*staff1
*Ivox	*Ivox
*I"Tenor	*I"Superius
*I'T	*I'S
*>[A,B,C,D,E,F,G,H,I,J]	*>[A,B,C,D,E,F,G,H,I,J]
*>A	*>A
*clefGv2	*clefG2
*k[]	*k[]
*M2/1	*M2/1
*met(C)	*met(C)
!!section: Laudate nomen Domini
!!!OMD: Laudate nomen Domini
=1-	=1-
!!LO:TX:Z=8:t=Choir 1
1A	1a
1c	1a
=2	=2
2c\	2a/
1c	1a
2A/	2f/
=3	=3
2B\	2g/
2.c\	2.a/
4B\	4g/
[2A/	[2f/
=4	=4
2A/]	2f/]
4G/	4e/
4F/	4d/
1G	1e
=5	=5
0Fl	0fl
=6||	=6||
*>B	*>B
*k[b-]	*
!!section: Sit nomen
!!!OMD: Sit nomen
!!LO:TX:Z=8:t=Choir 2
1F	1f
1B-	1g
=7	=7
1A	1a
2c\	2a/
2c\	2a/
=8	=8
2c\	2a/
1d	1b-i
2c\	[2a/
=9	=9
1B-	2a/]
.	2g/
1A	1a
=10	=10
1r	1r
2c\	2a/
2c\	2a/
=11	=11
1c	1a
2A/	2f/
2B-\	2g/
=12	=12
1c	2a/
.	1g
2B-\	.
2A/	[2f/
=13	=13
1G	2f/]
.	2e/
1Fl	1fl
=14||	=14||
*>C	*>C
*k[]	*
!!section: A solis
!!!OMD: A solis
!!LO:TX:Z=8:t=Choir 1
1A	1f
1B	1g
=15	=15
1A	1a
2c\	2a/
2c\	2a/
=16	=16
1c	1a
2c\	2a/
2d\	2b\
=17	=17
2e\	2cc\
1d	1b
2c\	[2a/
=18	=18
1B-i	2a/]
.	2g/
1A	1a
=19	=19
1r	1r
1c	1a
=20	=20
2c\	2a/
2c\	2a/
1c	1a
=21	=21
2B\	2g/
2A/	2f/
2B\	2g/
[2c\	[2a/
=22	=22
2c\]	4a/]
.	4g/
2A/	1f
1G	.
.	2e/
=23	=23
0Fl	0fl
=24||	=24||
*>D	*>D
*k[b-]	*
!!LO:TX:Z=8:t=Choir 2
!!section: Excelsus super
!!!OMD: Excelsus super
1A	1f
1B-	1g
=25	=25
1c	1a
2B-\	2g/
2c\	2a/
=26	=26
1d	1b-i
2c\	2a/
2c\	2cc\
=27	=27
2d\	2b-i\
2A/	1a
1B-	.
.	2g/
=28	=28
1A	1a
1r	1r
=29	=29
1c	1a
2c\	2a/
2c\	2a/
=30	=30
1c	1a
2A/	2f/
2B-\	2g/
=31	=31
2c\	2a/
1d	1b-i
4c\	4a/
4B-\	4g/
=32	=32
2A/	2f/
2G/	1g
2B-\	.
2A/	[2f/
=33	=33
1G	2f/]
.	2e/
1Fl	1fl
=34||	=34||
*>E	*>E
!!LO:TX:Z=8:t=Choir 1
!!section: Quis sicut
!!!OMD: Quis sicut
1F	1f
1B-	1g
=35	=35
1A	1a
2c\	2a/
2c\	2a/
=36	=36
2c\	2a/
2c\	2a/
1c	1a
=37	=37
1B-	1g
1F	1f
=38	=38
1c	2r
.	2a/
2B-\	2g/
2c\	2a/
=39	=39
2d\	2b\
2c\	2.cc\
2A/	.
.	4b\
2c\	[2a/
=40	=40
1B-	2a/]
.	2g/
1A	1a
=41	=41
1r	1r
2c\	2a/
2c\	2a/
=42	=42
2c\	2a/
2c\	2a/
1c	1a
=43	=43
2c\	2a/
2c\	2a/
1A	1a
=44	=44
2B-\	2g/
2A/	2f/
2B-\	2g/
2c\	2a/
=45	=45
2d\	2.b-i\
2B-\	.
.	4a/
2c\	4g/
.	4f/
2A/	[2f/
=46	=46
1G	2f/]
.	2e/
1Fl	1fl
=47||	=47||
*>F	*>F
!!section: Suscitans
!!!OMD: Suscitans
!!LO:TX:Z=8:t=Choir 2
1A	1a
1c	1a
=48	=48
1c	1a
2B-\	2g/
2c\	2a/
=49	=49
2d\	2b-i\
2A/	1a
1B-	.
.	2g/
=50	=50
1A	1a
1r	1r
=51	=51
2c\	2a/
2c\	2a/
2c\	2a/
2c\	2a/
=52	=52
1c	1a
2A/	2f/
2B-\	2g/
=53	=53
1c	2a/
.	1g
2B-\	.
2A/	[2f/
=54	=54
1G	2f/]
.	2e/
1Fl	1fl
=55||	=55||
*>G	*>G
!!section: Ut collocet
!!!OMD: Ut collocet
!!LO:TX:Z=8:t=Choir 1
1F	1f
1B-	1g
=56	=56
1A	1a
2c\	2a/
2c\	2a/
=57	=57
1c	1a
1c	1a
=58	=58
1d	1b-i
2e\	2cc\
2d\	2b-i\
=59	=59
2c\	2a/
1d	1b-i
2c\	[2a/
=60	=60
1B-	2a/]
.	2g/
1A	1a
=61	=61
1r	1r
2c\	2a/
2c\	2a/
=62	=62
2c\	2a/
2c\	2a/
1c	1a
=63	=63
2B-\	2g/
2A/	2f/
2B-\	2g/
2c\	2a/
=64	=64
2d\	2.b-i\
2B-\	.
.	4a/
2c\	4g/
.	4f/
2A/	[2f/
=65	=65
1G	2f/]
.	2e/
1Fl	1fl
=66||	=66||
*>H	*>H
!!section: Qui habitare
!!!OMD: Qui habitare
!!LO:TX:Z=8:t=Choir 2
2A/	2a/
2A/	2a/
2c\	2a/
2c\	2a/
=67	=67
2c\	2a/
2c\	2a/
1c	1a
=68	=68
2B-\	2g/
2c\	2a/
2d\	2b\
2c\	[2cc\
=69	=69
1A	4cc\]
.	4b\
.	1a
1B-	.
.	2g/
=70	=70
1A	1a
1r	1r
=71	=71
2c\	2a/
2c\	2a/
2c\	2a/
2c\	2a/
=72	=72
1B-	1g
2A/	2f/
2G/	[2g/
=73	=73
2B-\	4g/]
.	4f/
2A/	1f
1G	.
.	2e/
=74	=74
0Fl	0fl
=75||	=75||
*>I	*>I
!!section: Gloria Patri
!!!OMD: Gloria Patri
!!LO:TX:Z=8:t=Choir 1
1F	1f
1B-	1g
=76	=76
1A	1a
1c	1a
=77	=77
1c	1a
2B-\	2g/
2c\	2a/
=78	=78
2d\	2b\
2c\	2.cc\
2A/	.
.	4b\
2c\	[2a/
=79	=79
1B-	2a/]
.	2g/
1A	1a
=80	=80
1r	1r
1c	1a
=81	=81
1c	1a
1B-	1g
=82	=82
2.A/	2.f/
4B-\	4g/
2c\	2a/
[2d\	[2b-i\
=83	=83
2d\]	2b-\]
4c\	4a/
4B-\	4g/
2A/	2f/
[2B-\	[2g/
=84	=84
2B-\]	2g/]
2A/	1f
1G	.
.	2e/
=85	=85
0Fl	0fl
=86||	=86||
*>J	*>J
!!section: Sicut erat
!!!OMD: Sicut erat
!!LO:TX:Z=8:t=Choir 2
1F	1f
1B-	1g
=87	=87
1A	1a
2c\	2a/
2c\	2a/
=88	=88
2c\	2a/
2c\	2a/
2c\	2a/
2c\	2a/
=89	=89
1A	1a
1B-	1g
=90	=90
2c\	2a/
2.d\	2.b-i\
4c\	4a/
2A/	[2a/
=91	=91
1B-	2a/]
.	2g/
1A	1a
=92	=92
1r	1r
2c\	2a/
2c\	2a/
=93	=93
2c\	2a/
2c\	2a/
1c	1a
=94	=94
1B-	1g
2A/	2f/
2B-\	2g/
=95	=95
2c\	2a/
2d\	1b-i
1B-	.
.	4a/
.	4g/
=96	=96
2A/	2f/
2B-\	2.g/
2G/	.
.	4f/
2A/	[2f/
=97	=97
1G	2f/]
.	2e/
1Fl	1fl
==	==
*-	*-
!!!RDF**kern: l=long note in original notation
!!!RDF**kern: i=editorial accidental
!!!ENC:	Chris Gage 01-27-2014
!!!END:	2014/10/06/
!!!EED:	Jesse Rodin
!!!EEV:	2014/10/18/
!!!ONB:	Translated from MusicXML and edited on 2014/10/18/ by Craig Sapp
!!muse2ps: C^@{COM}^i2I150v85,150c180
